src/asset/24px/bar-chart.svg

<svg width="24" height="24" viewBox="0 0 24 24" fill="none" xmlns="http://www.w3.org/2000/svg">
<path fill-rule="evenodd" clip-rule="evenodd" d="M2 13C2 11.8954 2.89543 11 4 11H6C7.10457 11 8 11.8954 8 13V16C8 16.5523 7.55228 17 7 17C6.44772 17 6 16.5523 6 16V13H4V16C4 16.5523 3.55228 17 3 17C2.44772 17 2 16.5523 2 16V13Z" fill="#808080"/>
<path fill-rule="evenodd" clip-rule="evenodd" d="M9 10C9 8.89543 9.89543 8 11 8H13C14.1046 8 15 8.89543 15 10V16C15 16.5523 14.5523 17 14 17C13.4477 17 13 16.5523 13 16V10H11V16C11 16.5523 10.5523 17 10 17C9.44772 17 9 16.5523 9 16V10Z" fill="#808080"/>
<path fill-rule="evenodd" clip-rule="evenodd" d="M16 6C16 4.89543 16.8954 4 18 4H20C21.1046 4 22 4.89543 22 6V16C22 16.5523 21.5523 17 21 17C20.4477 17 20 16.5523 20 16V6L18 6V16C18 16.5523 17.5523 17 17 17C16.4477 17 16 16.5523 16 16V6Z" fill="#808080"/>
<path fill-rule="evenodd" clip-rule="evenodd" d="M1.5 19C1.5 18.4477 1.94772 18 2.5 18H21.5C22.0523 18 22.5 18.4477 22.5 19C22.5 19.5523 22.0523 20 21.5 20H2.5C1.94772 20 1.5 19.5523 1.5 19Z" fill="#808080"/>
</svg>

<svg width="24" height="24" fill="none" xmlns="http://www.w3.org/2000/svg"><path fill-rule="evenodd" clip-rule="evenodd" d="M2 13a2 2 0 012-2h2a2 2 0 012 2v3a1 1 0 11-2 0v-3H4v3a1 1 0 11-2 0v-3zM9 10a2 2 0 012-2h2a2 2 0 012 2v6a1 1 0 11-2 0v-6h-2v6a1 1 0 11-2 0v-6zM16 6a2 2 0 012-2h2a2 2 0 012 2v10a1 1 0 11-2 0V6h-2v10a1 1 0 11-2 0V6zM1.5 19a1 1 0 011-1h19a1 1 0 110 2h-19a1 1 0 01-1-1z" fill="gray"/></svg>
